X: 19
T:Mike's Fancy
R:Jig
C:Jerry Holland
Z:Added by Alf Warnock
M:6/8
L:1/8
K:G
c|:Bd^c dBG|Bdg dBG|EA=c cBc|FAd d2c|
Bd^c dBG|Bdg dBG|EAG FEF|[1 G3 G2=c:|[2 G3 G2C|
|:D3 DB,G,|CEG EDC|D3 DGB|=cBc ADC|
D3 DB,G,|CEG EDC|B,DG FEF|G3 G2z:|

